src/assets/images/Paw_blue.svg

<svg width="33" height="34" viewBox="0 0 33 34" fill="none" xmlns="http://www.w3.org/2000/svg">
<path d="M15.1434 31.0684C13.055 30.0983 10.6935 28.317 8.25177 26.6683C6.86561 25.7327 5.55298 24.7053 4.54789 23.3442C3.50993 21.9392 3.42713 20.6722 4.23516 19.3961C4.99995 18.1887 6.32179 17.6502 7.92425 17.9732C9.54289 18.2996 11.1141 18.3336 12.7565 17.9183C15.5059 17.2223 17.9884 19.1474 18.076 21.9867C18.1251 23.5733 18.9874 24.7021 19.8351 25.8719C20.5097 26.8031 20.9172 27.7957 20.6145 28.9776C19.9838 31.4338 18.4139 32.1822 15.1434 31.0684Z" fill="#47B2FF"/>
<path d="M20.7848 8.98589C20.2784 10.2818 19.6773 11.5148 18.5766 12.4227C17.0097 13.7152 15.3714 13.4289 14.368 11.6888C12.665 8.73477 13.65 5.22039 16.5955 3.73744C18.8802 2.58769 20.6945 3.52151 21.0821 6.04276C21.2377 7.04984 21.0741 8.02295 20.7848 8.98589Z" fill="#47B2FF"/>
<path d="M20.3446 12.1171C21.2049 10.338 22.4196 8.5029 24.6665 7.7017C26.8952 6.9072 28.5091 8.06722 28.5888 10.4561C28.7052 13.9347 25.7367 16.7142 22.328 16.3199C20.3498 16.0911 19.5074 14.5036 20.3446 12.1171Z" fill="#47B2FF"/>
<path d="M12.3212 13.3255C11.6637 15.2172 10.4129 16.4613 8.40324 16.7394C6.21233 17.0423 4.51843 15.1032 5.17402 12.9792C5.8218 10.881 7.16971 9.26369 9.11648 8.24581C10.4752 7.53538 11.4357 7.90443 12.1065 9.2966C12.7316 10.5943 12.81 11.9461 12.3212 13.3255Z" fill="#47B2FF"/>
<path d="M27.3017 22.6282C26.839 23.8744 25.9685 25.3419 24.3878 26.2316C22.8873 27.0763 21.7149 26.5972 21.2144 24.9316C20.6485 23.051 20.8335 21.1967 21.8091 19.4961C22.6629 18.0081 25.2169 17.2852 26.6816 17.9941C27.8594 18.5631 28.1492 20.1697 27.3017 22.6282Z" fill="#47B2FF"/>
</svg>

<svg xmlns="http://www.w3.org/2000/svg" width="33" height="34" fill="none" viewBox="0 0 33 34"><path fill="#47b2ff" d="M15.143 31.068c-2.088-.97-4.45-2.751-6.891-4.4-1.386-.935-2.699-1.963-3.704-3.324-1.038-1.405-1.12-2.672-.313-3.948.765-1.207 2.087-1.746 3.69-1.423 1.618.327 3.19.36 4.832-.055 2.749-.696 5.231 1.23 5.319 4.069.05 1.586.911 2.715 1.76 3.885.674.931 1.081 1.924.779 3.106-.631 2.456-2.201 3.204-5.472 2.09M20.785 8.986c-.507 1.296-1.108 2.529-2.208 3.437-1.567 1.292-3.206 1.006-4.209-.734-1.703-2.954-.718-6.469 2.228-7.952 2.284-1.15 4.099-.215 4.486 2.306.156 1.007-.008 1.98-.297 2.943M20.345 12.117c.86-1.779 2.075-3.614 4.322-4.415 2.228-.795 3.842.365 3.922 2.754.116 3.479-2.852 6.258-6.261 5.864-1.978-.229-2.82-1.816-1.983-4.203M12.321 13.326c-.657 1.891-1.908 3.135-3.918 3.413-2.19.303-3.885-1.636-3.229-3.76.648-2.098 1.996-3.715 3.942-4.733 1.36-.71 2.32-.342 2.99 1.05.626 1.298.704 2.65.215 4.03M27.302 22.628c-.463 1.246-1.334 2.714-2.914 3.604-1.5.844-2.673.365-3.174-1.3-.566-1.881-.38-3.735.595-5.436.854-1.488 3.408-2.21 4.873-1.502 1.177.57 1.467 2.176.62 4.634"/></svg>
